X:
T:Vendredi Trad
C:Laurence Beaudry
N:©Laurence Beaudry
N:Pour Normand B\'elanger
N:Le moussaillon
M:2/4
L:1/8
K:A
e&gt;d |: cA EA/c/ | ed Bf/g/ | fd g/a/g/f/ | bg e&gt;d |
cA EA/c/ | ed Bg/a/ |1 gb fa | e/f/g/f/ e/d/c/B/ :|2 ga fg | e/d/c/B/ A2 |:
FF F/G/A/B/ | GE cd/e/ | fd BA | GB E2 | 
df B/c/d/B/ | ce A&gt;c | fd BA | G/A/B/G/ E2 |
FF F/G/A/B/ | GE cd/e/ | fd BA | GB E2 | 
df B/c/d/B/ | ce A&gt;c | B/c/d/B/ GE | A2 e&gt;d |]

